X:1
T: Prince George's Birthday
N:
C:
S:
A:
O:
R:
M:3/2
K:Am
I:speed 200
%W: A1
% voice 1 (1 lines, 23 notes)
K:Am
M:3/2
L:1/16
c4 A4 |c2 d2 e4 |B2 c2 d4 |c8 |A8 |e8 |a4 e4 |f2 e2 d4 |e2 d2 c4 |c12 |B2 A2 A8 |
%W:
% voice 1 (1 lines, 21 notes)
e4 c4 |e2 f2 g4 |d2 e2 f4 |e8 |c8 |g8 |a2 b2 a4 |g2 a2 g4 |f4 e4 |d16 |c8 |
%W: A2
% voice 1 (1 lines, 23 notes)
c4 A4 |c2 d2 e4 |B2 c2 d4 |c8 |A8 |e8 |a4 e4 |f2 e2 d4 |e2 d2 c4 |c12 |B2 A2 A8 |
%W:
% voice 1 (1 lines, 21 notes)
e4 c4 |e2 f2 g4 |d2 e2 f4 |e8 |c8 |g8 |a2 b2 a4 |g2 a2 g4 |f4 e4 |d16 |c8 |
%W: B1
% voice 1 (1 lines, 16 notes)
e4 c8 |e4 d8 |d4 B8 |d4 c8 |c4 A8 |c4 B4 |A4 ^G12 |A4 B8 |
%W:
% voice 1 (1 lines, 23 notes)
c2 d2 e4 |d2 e2 f4 |e8 |e2 ^f2 g4 |f2 g2 a4 |^g8 |a4 e4 |f4 a4 |b4 c'4 |a12 |^g4 a8 |
%W: B2
% voice 1 (1 lines, 16 notes)
e4 c8 |e4 d8 |d4 B8 |d4 c8 |c4 A8 |c4 B4 |A4 ^G12 |A4 B8 |
%W:
% voice 1 (1 lines, 23 notes)
c2 d2 e4 |d2 e2 f4 |e8 |e2 ^f2 g4 |f2 g2 a4 |^g8 |a4 e4 |f4 a4 |b4 c'4 |a12 |^g4 a8 ||
